src/assets/svg/paw.svg

<svg width="108" height="103" viewBox="0 0 108 103" fill="none" xmlns="http://www.w3.org/2000/svg">
<g clip-path="url(#clip0)">
<path d="M76.8718 2.17151C69.8515 0.620452 61.9537 6.20425 59.4966 14.735C57.0395 23.2658 60.9007 31.4864 67.9209 33.0375C74.9412 34.5885 82.839 29.0047 85.2961 20.4739C88.6307 9.30636 78.6268 2.48172 76.8718 2.17151Z" fill="white"/>
<path d="M39.4887 31.3313C46.5646 31.3313 52.3007 24.3175 52.3007 15.6656C52.3007 7.01375 46.5646 0 39.4887 0C32.4129 0 26.6768 7.01375 26.6768 15.6656C26.6768 24.3175 32.4129 31.3313 39.4887 31.3313Z" fill="white"/>
<path d="M93.5448 30.8661C85.998 31.0212 80.2063 37.2254 80.3818 46.997C80.5573 56.7687 86.7001 61.1116 94.2468 61.1116C101.794 60.9565 107.585 56.4584 107.41 46.6868C107.234 33.8131 95.2999 30.7109 93.5448 30.8661Z" fill="white"/>
<path d="M26.6096 38.3965C25.9195 29.6799 19.4026 22.9821 12.0536 23.4365C4.70463 23.8909 -0.693467 31.3255 -0.00339397 40.042C0.686679 48.7586 7.20361 55.4565 14.5526 55.0021C21.9015 54.5477 27.2996 47.1131 26.6096 38.3965Z" fill="white"/>
<path d="M86.7005 67.3157C80.3822 62.3523 74.9415 58.3196 66.3417 47.9275C62.1296 42.809 57.2154 42.1886 52.3012 42.1886C47.2115 42.1886 41.9463 43.7397 37.7341 49.0132C33.6975 54.2868 28.9588 59.2502 19.8325 65.9197C10.8817 72.5893 7.02051 77.0873 7.02051 83.912C7.02051 90.7366 11.4082 101.904 23.8691 101.904C36.3301 101.904 42.2973 99.4225 52.3012 99.4225C62.3051 99.4225 68.7988 102.835 81.2598 102.835C93.7207 102.835 98.9859 92.4428 98.9859 85.6181C98.9859 78.7935 96.7043 75.071 86.7005 67.3157Z" fill="white"/>
</g>
<defs>
<clipPath id="clip0">
<rect width="107.41" height="102.99" fill="white"/>
</clipPath>
</defs>
</svg>

<svg xmlns="http://www.w3.org/2000/svg" width="108" height="103" fill="none"><g clip-path="url(#A)" fill="#fff"><path d="M76.872 2.172C69.852.62 61.954 6.204 59.497 14.735s1.404 16.75 8.424 18.303 14.918-4.033 17.375-12.564c3.335-11.168-6.67-17.992-8.424-18.302zM39.5 31.33c7.076 0 12.812-7.014 12.812-15.666S46.565 0 39.5 0 26.677 7.014 26.677 15.666 32.413 31.33 39.5 31.33zm54.055-.464c-7.547.155-13.338 6.36-13.163 16.13S86.7 61.112 94.247 61.112c7.547-.155 13.338-4.653 13.163-14.425-.176-12.874-12.1-15.976-13.865-15.82zM26.6 38.397c-.7-8.717-7.207-15.414-14.556-14.96S-.693 31.326-.003 40.042s7.207 15.414 14.556 14.96S27.3 47.113 26.6 38.397zm60.1 28.92c-6.318-4.963-11.76-8.996-20.36-19.388-4.212-5.12-9.126-5.74-14.04-5.74-5.1 0-10.355 1.55-14.567 6.825-4.037 5.274-8.775 10.237-17.902 16.907-8.95 6.67-12.81 11.167-12.81 17.992s4.388 17.992 16.85 17.992 18.428-2.48 28.432-2.48 16.498 3.412 28.96 3.412S98.988 92.444 98.988 85.62 96.704 75.07 86.7 67.316z"/></g><defs><clipPath id="A"><path fill="#fff" d="M0 0h107.4v103H0z"/></clipPath></defs></svg>
